X:487
T:B487-  The Vicar of Bray (Tune= O Bessy Bell and Mary Gray)
S:(1st/2) earliest words and tune, 1734
Q:1/4=120
L:1/8
M:6/8
K:F# phrygian
D|FGA AB=c|BAB G2G|FGA ABA|f3f2f/g/|\
a2A AB=c|BAGf2f/g/|agf edc|d3f2|:f/g/|\
afd faf|eceg2f/g/|afd ded|f3g2 f/g/|
afd faf|eceg2f/g/|agf edc|d3f2:|]
